**kern	**kern	**dynam
*part1	*part1	*part1
*staff2	*staff1	*
*I"Piano	*	*
*clefG2	*clefG2	*
*k[]	*k[]	*
=1	=1	=1
8qb/	.	.
4e 4cc	4r	.
.	8qdd#X/	.
4f^^ 4a	4cc^^ 4ee	.
4r	4r	.
[4d [4f	6a	.
.	12b	.
=	=	=
*M3/8	*M3/8	*
4d] 4f]	(8ccL	.
.	8b	.
8c 8e	8aJ)	.
*clefF4	*	*
=	=	=
(4B	(4d#X 4f#X 4b	<
8A	8e 8a 8cc	.
=	=	=
8EL	4g 4b 4ee	[
8F#X	.	.
8GJ)	8f#X) 8b 8dd	.
=	=	=
(4A	(4e 4a 4cc#X	<
8G	8f#X 8b 8dd	.
=	=	=
8F#XL	4a 4cc#X 4ff#X	[
8G	.	.
8AJ)	8g) 8cc# 8ee	.
=	=	=
(4B	4f#X 4b 4dd	<
8A	(8g 8cc#X 8ee	.
=	=	=
*-	*-	*-
!!!system-decoration: {(s1,s2)}
